X: 293
T: Needlecase
B: canberra pickers and fiddlers
B: tunes
M:C|
R: reel
Q: 1/4=180
K:D
V:1 
fg|\
"D"a2g2f2e2|"G"B2 gB g2 a2-|"D"a2 g2f2e2|"A"cABc A2 fg|
"D"a2g2f2e2|"G"B2 gB g2A2-|"A"ABcd egfd|cABc "D"d2:|
|:FE|\
"D"D2 d2 dB A2|"G"A3 d B4|"D"A2AB AGFD|"A"E3 F E2FE|
"D"DFAB dB A2|"G"B3d B2 A2-|"A"ABcd egfe|cABc "D"d2:|
% abcbook-tune_id 63da5934c0315d28868ac3e2
% abcbook-tune_composer_id 
% abcbook-link-0 https://www.youtube.com/watch?v=MHvWRinJfI0
% abcbook-link-end-at-0 162
% abcbook-boost 0
% abcbook-difficulty 0
% abcbook-tags canberra pickers and fiddlers,old time tunes,© free
% abcbook-tablature 
% abcbook-transpose 
% abcbook-tuning ADAE
% abcbook-lastupdated 1722907268098
% abcbook-src-url https://tunebook.net/scrape/tunes.abc
% abcbook-soundfonts 
% abcbook-repeats 1
%%gchordfont "itim-music,Itim" 20

